X:1
T:Title
%%score ( 1 2 ) 3 ( 4 5 )
L:1/8
Q:1/4=88
M:6/8
K:F
V:1 treble nm="Grand Piano, Soprano"
V:2 treble 
V:3 treble nm="Drawbar Organ, Staff-1"
V:4 bass nm="Choir Pad, Bass"
V:5 bass 
V:1
 C A2- A2 B | c D2- D2 E | F C2- C2 F | A G2- G2 G | G G2- G2 A | B A2- A2 _A | A =B2- B2 c | %7
w: By~Peter~Philip~Bilhorn * * *|||||||
 d c2- c2- c/ z/ | C A2- A2 B | c D2- D2 E | F C2- C2 F | A c2- c2- c/ z/ | ^c d2- d2 G | %13
w: ||||||
 d c2- c2 A | F A2- A A2 | G F2- F2- F/ z/ | C [Ec]2- [Ec] [EB]2 | D [EB]2- [EB] [FA]2 | %18
w: |||||
 [FA] [FA]2- [FA] [FG]2 | F [Ec]2- [Ec]2- [Ec]/ z/ | [Fc] [Af]2 z [Ac]2 | [FA] [Fd]2 z FG | %22
w: ||||
 [F_A][F=A][Fc]- [Fc]C-[C-D] | [CE] [CF]2- [CF]3- | [CF]3 z3 |] %25
w: |||
V:2
 x6 | x6 | x6 | x6 | x6 | x6 | x6 | x6 | x6 | x6 | x6 | x6 | x6 | x6 | x6 | x6 | x6 | x6 | x6 | %19
 x6 | x6 | x6 | z3 z .E2 | x6 | x6 |] %25
V:3
 z [A,CF][A,CF] [A,CF] .[A,CF]2 | z [B,D][B,D] [B,D] .[B,D]2 | z CC C .C2 | %3
 z [CE][CE] [CE] .[CE]2 | z [EG][EG] [EG] .[EG]2 | z [FA][FA] [FA] .[FA]2 | %6
 z [EFG][EFG] [EFG] .[EFG]2 | z [EG][EG] [FA] [EA]2 | z [A,CF][A,CF] [A,CF] .[A,CF]2 | %9
 z [B,D][B,D] [B,D] .[B,D]2 | z CC C .C2 | z [_EA][EA] [EA] [EA]2 | z [DFB][DFB] [DFB] .[DFB]2 | %13
 z [FA][FA] [FA] .[FA]2 | z [FA][FA] [FA] [EA]2 | [CEG] [CF]2- [CF]2- [CF]/ z/ | z6 | z6 | z6 | %19
 z6 | z6 | z6 | z6 | z6 | z6 |] %25
V:4
 z [F,,F,][F,,F,] [F,,F,] .[F,,F,]2 | z [B,,F,][B,,F,] [B,,F,] .[B,,F,]2 | %2
 z [F,A,][F,A,] [F,A,] .[F,A,]2 | z [C,G,][C,G,] [C,G,] .[C,G,]2 | z [C,C][C,C] [C,C] .[C,C]2 | %5
 z [F,C][F,C] [F,C] .[F,C]2 | z [G,=B,][G,B,] [G,B,] .[G,B,]2 | z [C,C][C,B,] [C,A,] [C,G,]2 | %8
 z [F,,F,][F,,F,] [F,,F,] .[F,,F,]2 | z [B,,F,][B,,F,] [B,,F,] .[B,,F,]2 | %10
 z [F,A,][F,A,] [F,A,] .[F,A,]2 | z [F,C][F,C] [F,C] [F,C]2 | z [B,,B,][B,,B,] [B,,B,] .[B,,B,]2 | %13
 z [F,C][F,C] [F,C] .[F,C]2 | z [C,C][C,C] [C,C] [C,C]2 | [C,C] [F,A,]2- [F,A,]2- [F,A,]/ z/ | %16
 [F,A,] [C,G,]2- [C,G,] [C,G,]2 | [C,B,] [C,G,]2- [C,G,] F,2 | [F,C] [D,D]2- [D,D] [D,=B,]2 | %19
 [D,=B,] [C,C]2- [C,C]2- [C,C]/ z/ | [F,A,] [F,C]2 z [F,C]2 | [F,C] [B,,B,]2 z A,B, | %22
 [^C,=B,][=C,C][C,A,]- [C,A,] [C,_B,]2- | [C,B,] [F,A,]2- [F,A,]3- | [F,A,]3 z3 |] %25
V:5
 x6 | x6 | x6 | x6 | x6 | x6 | x6 | x6 | x6 | x6 | x6 | x6 | x6 | x6 | x6 | x6 | x6 | x6 | x6 | %19
 x6 | x6 | z3 z D,2 | x6 | x6 | x6 |] %25

